X:31
T:Maid at the Spinning Wheel, The
R:Jig
M:6/8
L:1/8
K:G
D|:G2 G B2 A|BcA B2 D|GFG BAG|F2 A AFD|GFG B2 A|BcA B2 g|fed cAF|1GAG G2
 D:|2GAG G2 c|:BAG AFD|DED AFD|DED AFD|EFG ABc|BAG AFE|DED AFD|ded cAF|1
GAG G2 c:|2GAG G2 D|:GBd gba|gdB ecA|dBG AFG|F2 G AFD|GBd gba|gdB ecA|fe
d cAF|1AGF G3:|2GAG G2 D||
